!!!OTL: SCHOENSTES KIND ZU DEINEN FUESSEN LIEG ICH HIER
!!!ARE: Europa, Mitteleuropa, Deutschland
!!!SCT: Z0311
!!!YEM: Copyright 1995, estate of Helmut Schaffrath.
**kern
*ICvox
*Ivox
!! 3/42+3 metric grouping
!! Mixed meters:  6/4; 5/4
*M6/4
*k[]
*C:
{8g
8e
8cc
8a
8g
8a
4g
4f
4e
=1
*M5/4
8g
8cc
8a
8f
4g
4d
4c}
=2
*M6/4
{8g
8e
8cc
8a
8g
8a
4g
4f
4e
=3
*M5/4
8g
8cc
8a
8f
4g
4d
4c
=4
2r}
{8d
8e
=5
4f
4d
8e
8f
=6
4g
4e}
{8d
8e
=7
4f
4d
8e
8f
=8
4g
4e
4r}
{8g
8e
8cc
8a
4g
4f
4e
=9
8g
8cc
8a
8f
4e
4d
4c}
==
!!!AGN: Lyrisches Lied, Romanze, Verlassenheit
!!!ONB: ESAC (Essen Associative Code) Database: ZUCCAL
!!!AMT: irregular
!!!AIN: vox
!!!EED: Helmut Schaffrath
!!!EEV: 1.0
*-
